X: 263
T:Je bela cesta vglajena
S:Zbrala Dusica Kunaver, Slovenian Customs and Songs
M:3/4
L:1/4
Q:3/4=60
K:BbMix
G|B2 B|(B A) G|F2 B|A2
B|d2 d|(d c) A|G2 c|B2
G|B2 B|(B A) G|F2 B|A2
B|d2 d|(d c) A|G2 |]

=============================================================================
==  (c) Jack Campin         http://www.campin.me.uk/          August 2013  ==
==        11 Third Street, Newtongrange, Midlothian EH22 4PU, Scotland     ==
==                                                                         ==
==              these pages: http://tinyurl.com/scottishmodes              ==
=============================================================================

=============================================================================
=               Scales and Modes in Scottish Traditional Music              =
=                                  Jack Campin                              =
=============================================================================


Multiple Modes in the Same Tune
===============================

Some tunes switch mode partway through.  This tune does it in the way most
familiar in tonal music - a shift from major to minor on the same tonal
centre and back again:

